X:2
T:La baleine
L:1/4
M:4/4
K:Am
[V:1]|:"2:32"A,4-|A,A, CD | E4 | Z | A,4- | A, A, CD | D3 D | EG DE :| 
[V:2]|:C4- | C CCD | E4 | Z | C4- | C EGE | F3 F | F C FE :| 
E>F E>F | E/D/ C3 - | C4 | D>E D>E | D/C/ G,3 | A,4 |]
